X:1
T:Brudmarsch frn Rke Socken
C:Lennart Thrn
R:Marsch
Z:Patrik Mnsson, 2008-07-24
O:Skne
M:2/4
L:1/16
Q:1/4=100
K:C
E2F2 |: G4 AG^FG | c4 dcBc | e8 | G4 e2f2 | g4 c2c2 | e2d2 c2B2 |
c4 d2d2 | d4 E2F2 | G4 AG^FG | c4 dcBc | e8 | c4 e2e2 | d4 g2g2 |
^f4 fgaf | g4 g2g2 |[1 g4 E2F2 :|[2 g4 G2G2]|: f4 dcBc | d4 fefg | e8 |
c4 g2g2 | a4 g2g2 | a2g2 f2e2 | d8 | g4 G2G2 | c4 dcBc | A4 Bcde |
f8 | A4 f2f2 | e4 e2e2 | f2d2 c2B2 | c4 c2c2 |[1 c4 G2G2 :|[2 c4 z4]|
